icons/sim-card-2-line.svg

<svg viewBox="0 0 24 24" fill="currentColor" xmlns="http://www.w3.org/2000/svg">
    <path d="M6 4V20H18V7.82843L14.1716 4H6ZM5 2H15L19.7071 6.70711C19.8946 6.89464 20 7.149 20 7.41421V21C20 21.5523 19.5523 22 19 22H5C4.44772 22 4 21.5523 4 21V3C4 2.44772 4.44772 2 5 2ZM13 10V18H11V12H8V10H13ZM8 13H10V15H8V13ZM14 13H16V15H14V13ZM14 10H16V12H14V10ZM8 16H10V18H8V16ZM14 16H16V18H14V16Z"/>
</svg>

<svg xmlns="http://www.w3.org/2000/svg" viewBox="0 0 24 24">
    <g>
        <path fill="none" d="M0 0h24v24H0z"/>
        <path d="M6 4v16h12V7.828L14.172 4H6zM5 2h10l4.707 4.707a1 1 0 0 1 .293.707V21a1 1 0 0 1-1 1H5a1 1 0 0 1-1-1V3a1 1 0 0 1 1-1zm8 8v8h-2v-6H8v-2h5zm-5 3h2v2H8v-2zm6 0h2v2h-2v-2zm0-3h2v2h-2v-2zm-6 6h2v2H8v-2zm6 0h2v2h-2v-2z"/>
    </g>
</svg>
